X:17841
T:Triumph. TLY.026
M:2/4
L:1/16
Q:90
C:"Well Dun, Mon!"
S:Wm.Tildesley,Swinton,Lancs.1860s.
R:Reel
O:England.
A:Lancashire.
H:1860.
Z:vmp.Taz Tarry.
K:G
g2|dBBG cAAF|Ggfg e2d2|dBBG cAAF|G2B2G2z2:|!
|:A3cB2d2 A3cB2d2|AAAc BBBd|dcBA G4:|!
|:B3d dcBA|A3c cBAG|B2cd efge|dcBA G2G2:|]
